assets/images/ico_account.svg

<svg width="14" height="18" viewBox="0 0 14 18" fill="none" xmlns="http://www.w3.org/2000/svg">
<path d="M10.9653 7.36703V4.91036C10.9653 2.65316 9.19091 0.816162 7.01066 0.816162C4.83041 0.816162 3.05604 2.65243 3.05604 4.91036V7.36703C1.96591 7.36703 1.07837 8.28516 1.07837 9.4145V14.737C1.07837 15.8656 1.9652 16.7845 3.05604 16.7845H10.966C12.0561 16.7845 12.9437 15.8664 12.9437 14.737V9.4145C12.943 8.28516 12.0561 7.36703 10.9653 7.36703ZM3.84654 4.91036C3.84654 3.10416 5.26604 1.63456 7.01066 1.63456C8.75529 1.63456 10.1748 3.10416 10.1748 4.91036V7.36703H3.84654V4.91036ZM12.1517 14.737C12.1517 15.4146 11.6198 15.9654 10.9653 15.9654H3.05604C2.40154 15.9654 1.86958 15.4146 1.86958 14.737V9.4145C1.86958 8.7369 2.40154 8.18616 3.05604 8.18616H10.966C11.6205 8.18616 12.1525 8.7369 12.1525 9.4145V14.737H12.1517Z" fill="#929BA9" stroke="#929BA9" stroke-width="0.6"/>
</svg>

<svg width="14" height="18" fill="none" xmlns="http://www.w3.org/2000/svg"><path d="M10.965 7.367V4.91c0-2.257-1.774-4.094-3.954-4.094S3.056 2.652 3.056 4.91v2.457c-1.09 0-1.978.918-1.978 2.048v5.322c0 1.129.887 2.048 1.978 2.048h7.91c1.09 0 1.978-.919 1.978-2.048V9.415c-.001-1.13-.888-2.048-1.979-2.048zM3.847 4.91c0-1.806 1.419-3.275 3.164-3.275 1.744 0 3.164 1.47 3.164 3.275v2.457H3.847V4.91zm8.305 9.827c0 .678-.532 1.228-1.187 1.228H3.056c-.654 0-1.186-.55-1.186-1.228V9.415c0-.678.532-1.229 1.186-1.229h7.91c.655 0 1.187.55 1.187 1.229v5.322h-.001z" fill="#929BA9" stroke="#929BA9" stroke-width=".6"/></svg>
